assets/Person deaf/Dark/Flat/person_deaf_flat_dark.svg

<svg width="32" height="32" viewBox="0 0 32 32" fill="none" xmlns="http://www.w3.org/2000/svg">
<path d="M19 2C19.0966 2.55904 19.315 3.09193 19.6417 3.56003C19.9296 3.98552 20.0861 4.48629 20.0917 5.00003V11.84C20.0909 12.5843 20.3228 13.3103 20.7549 13.9163C21.187 14.5224 21.7977 14.9782 22.5017 15.22L25.6117 16.3V4.11003L29.9433 4.1258V2H19Z" fill="black"/>
<path d="M30.0004 16.8398L30.0004 29.9999H12.6172C13.4647 26.9986 15.0823 24.241 17.3447 22.0187C20.722 18.7013 25.2663 16.8417 30.0004 16.8398Z" fill="#FF6723"/>
<path d="M21.75 10.5C23.2688 10.5 24.5 9.26878 24.5 7.75C24.5 6.23122 23.2688 5 21.75 5C20.2312 5 19 6.23122 19 7.75C19 9.26878 20.2312 10.5 21.75 10.5Z" fill="#4E3233"/>
<path d="M30 12C28.3431 12 27 13.3795 27 15.0811V18.9189C27 20.6205 28.3431 22 30 22V12Z" fill="#452829"/>
<path d="M30 2H21.4447C21 2.5 20.9324 3.51497 21 4L21.49 13C21.7026 14.5632 22.474 15.9967 23.6615 17.0353C24.849 18.0739 26.9924 18.6475 28.57 18.65H30V14.4503L29.3789 13.8073L30 13.1642V11.4602L29.3789 9.25382L30 7.04743V2Z" fill="#573739"/>
<path d="M15.5 9.81478C15.4531 9.38379 15.0656 9.07247 14.6346 9.11943C14.2036 9.1664 13.8923 9.55385 13.9393 9.98485C14.1007 11.4669 14.7382 12.8566 15.7561 13.9458C16.0521 14.2626 16.5489 14.2794 16.8656 13.9833C17.1824 13.6873 17.1992 13.1906 16.9032 12.8738C16.117 12.0326 15.6247 10.9593 15.5 9.81478Z" fill="#9B9B9B"/>
<path d="M12.5131 9.86088C12.4806 9.42856 12.1037 9.10447 11.6714 9.13702C11.2391 9.16956 10.915 9.54641 10.9476 9.97873C11.1209 12.2815 12.0926 14.4516 13.6951 16.1145C13.9959 16.4267 14.4929 16.4359 14.8051 16.1351C15.1172 15.8342 15.1264 15.3373 14.8256 15.0251C13.4769 13.6255 12.659 11.7991 12.5131 9.86088Z" fill="#9B9B9B"/>
<path d="M26.0001 5.6499C25.4778 5.65209 24.971 5.82827 24.5599 6.15062C24.1488 6.47297 23.8569 6.9231 23.7301 7.4299C23.7134 7.49792 23.7124 7.56887 23.7272 7.63733C23.7421 7.7058 23.7723 7.76997 23.8158 7.82495C23.8592 7.87993 23.9146 7.92428 23.9777 7.9546C24.0409 7.98492 24.1101 8.00041 24.1801 7.9999H27.9201C27.9773 7.99912 28.0336 7.98611 28.0853 7.96174C28.137 7.93736 28.1828 7.9022 28.2198 7.85861C28.2567 7.81503 28.2839 7.76403 28.2995 7.70905C28.3151 7.65408 28.3187 7.5964 28.3101 7.5399C28.2018 7.00694 27.9128 6.52775 27.4919 6.18336C27.0709 5.83897 26.544 5.65053 26.0001 5.6499V5.6499Z" fill="white"/>
<path d="M26.3503 6.1001C25.9525 6.1001 25.571 6.25813 25.2897 6.53944C25.0084 6.82074 24.8503 7.20227 24.8503 7.6001C24.835 7.73299 24.835 7.8672 24.8503 8.0001H27.7503C27.7824 7.86914 27.7991 7.73491 27.8003 7.6001C27.8005 7.21079 27.6494 6.83664 27.3788 6.55673C27.1082 6.27682 26.7394 6.11307 26.3503 6.1001Z" fill="#7D4533"/>
<path d="M27.2102 7.59975C27.2102 7.37166 27.1196 7.15292 26.9583 6.99163C26.7971 6.83035 26.5783 6.73975 26.3502 6.73975C26.1221 6.73975 25.9034 6.83035 25.7421 6.99163C25.5808 7.15292 25.4902 7.37166 25.4902 7.59975C25.4925 7.73897 25.5267 7.87582 25.5902 7.99975H27.1102C27.1737 7.87582 27.2079 7.73897 27.2102 7.59975V7.59975Z" fill="black"/>
<path d="M25.8403 7.27975C25.9894 7.27975 26.1103 7.15886 26.1103 7.00975C26.1103 6.86063 25.9894 6.73975 25.8403 6.73975C25.6912 6.73975 25.5703 6.86063 25.5703 7.00975C25.5703 7.15886 25.6912 7.27975 25.8403 7.27975Z" fill="white"/>
<path d="M26.7291 3.50801C25.8632 3.39939 24.9874 3.60896 24.2645 4.09774C24.0403 4.24932 23.7357 4.19046 23.5841 3.96628C23.4325 3.7421 23.4914 3.43748 23.7156 3.2859C24.6353 2.66406 25.7495 2.39744 26.851 2.53563C27.1196 2.56931 27.3099 2.8143 27.2762 3.08281C27.2426 3.35133 26.9976 3.54169 26.7291 3.50801Z" fill="black"/>
<path d="M30.0002 7.00635C29.8953 7.02177 29.7953 7.06404 29.7092 7.12998C29.5989 7.21458 29.5173 7.33371 29.4765 7.47001L28.6292 10.3222C28.5897 10.4586 28.5814 10.6026 28.6048 10.7429C28.6282 10.8832 28.6828 11.0158 28.7642 11.1302C28.8456 11.2446 28.9515 11.3376 29.0735 11.4017C29.1954 11.4659 29.3301 11.4994 29.4667 11.4997H30.0002V7.00635Z" fill="#3D2123"/>
<path d="M30 13.1271C29.9168 13.1309 29.8335 13.1325 29.75 13.132C28.9252 13.1384 28.1112 12.9311 27.378 12.5279C27.3271 12.5017 27.2696 12.4937 27.2141 12.505C27.1586 12.5163 27.108 12.5464 27.0697 12.5907C27.0314 12.6351 27.0075 12.6914 27.0015 12.7513C26.9955 12.8113 27.0077 12.8717 27.0363 12.9237C27.3293 13.4074 27.7311 13.805 28.2051 14.0804C28.6792 14.3557 29.2103 14.5 29.75 14.5C29.8336 14.5 29.917 14.4965 30 14.4897V13.1271Z" fill="#290118"/>
<path d="M20.6107 14.607C20.9638 13.8576 21.8575 13.5363 22.6069 13.8894C23.3563 14.2425 23.6776 15.1363 23.3245 15.8857L21.1933 20.4087C20.8402 21.1581 19.9465 21.4794 19.1971 21.1263C18.4477 20.7732 18.1264 19.8795 18.4795 19.13L20.6107 14.607Z" fill="#422426"/>
<path d="M21.8512 19.4979C21.7199 18.6991 21.2313 17.9107 20 17.5003C19.624 17.3749 19.2323 17.3599 18.8486 17.4315C18.0093 17.0893 17.062 17.3193 16.3035 17.8407C14.8356 17.6712 13.935 18.6948 13.5 19.9997L12 24.9997L15.5852 25.9998C15.6111 25.9376 15.6355 25.8748 15.6585 25.8115L18.5 27.0003C18.8333 26.3336 19.688 24.9602 20.44 24.8002L21.28 24.4902C22.0425 24.1897 22.659 23.6055 23 22.8602L23.79 21.0802C23.8608 20.9187 23.8977 20.7444 23.8985 20.5681C23.8993 20.3918 23.8639 20.2171 23.7946 20.055C23.7252 19.8929 23.6234 19.7467 23.4953 19.6255C23.3673 19.5043 23.2157 19.4106 23.05 19.3502C22.7335 19.2351 22.3851 19.2444 22.0751 19.3762C21.9962 19.4097 21.9213 19.4506 21.8512 19.4979Z" fill="#573739"/>
<path d="M18.6473 26.3416L12.707 23.703C12.4546 23.5909 12.1591 23.7046 12.047 23.9569L11.43 25.3461C11.3179 25.5984 11.4316 25.8939 11.684 26.006L17.6243 28.6446C17.8767 28.7567 18.1722 28.643 18.2843 28.3906L18.9013 27.0015C19.0134 26.7491 18.8997 26.4537 18.6473 26.3416Z" fill="#F95725"/>
<path d="M18.874 30H8.04297L9.80235 25.9442C9.97199 25.5592 10.2847 25.2581 10.6721 25.1066C11.0596 24.9551 11.4903 24.9654 11.8703 25.1354L18.0741 27.9082C18.4511 28.0827 18.7458 28.4005 18.8947 28.7933C19.0424 29.1831 19.0349 29.6159 18.874 30Z" fill="#FF8101"/>
<path d="M19.4719 23.0179C19.3449 23.0937 19.2084 23.1561 19.0667 23.2018C18.5029 23.3833 17.8245 23.31 17.272 22.7476C17.1819 22.6626 17.106 22.564 17.0468 22.4557C16.8802 22.5768 16.6912 22.6741 16.492 22.7382C15.9283 22.9197 15.2499 22.8465 14.6974 22.2841C14.572 22.1658 14.4741 22.0213 14.4107 21.8609C14.3465 21.6987 14.3192 21.5242 14.3307 21.3501C14.3419 21.1804 14.3897 21.0151 14.4709 20.8656L14.8461 20.0046C14.9012 19.878 15.0486 19.8201 15.1751 19.8753C15.3017 19.9304 15.3596 20.0777 15.3045 20.2043L14.9198 21.0871L14.9138 21.0977C14.865 21.1854 14.8362 21.2828 14.8296 21.383C14.823 21.4832 14.8387 21.5836 14.8756 21.677C14.9125 21.7704 14.9697 21.8543 15.043 21.9228L15.0513 21.9305C15.4556 22.3441 15.9308 22.3937 16.3388 22.2623C16.7653 22.125 17.0861 21.8015 17.1714 21.5139L17.1784 21.4903L17.1899 21.4684C17.3689 21.1288 17.4973 20.4357 17.3867 19.7666C17.2773 19.1054 16.9491 18.5344 16.2815 18.3233C16.1498 18.2817 16.0769 18.1412 16.1185 18.0096C16.1601 17.8779 16.3006 17.805 16.4322 17.8466C17.346 18.1355 17.7533 18.919 17.88 19.685C18.0034 20.4313 17.8744 21.2247 17.6434 21.68C17.5973 21.8239 17.5218 21.9627 17.424 22.091C17.4343 22.1061 17.4432 22.1227 17.4503 22.1405C17.4872 22.2339 17.5444 22.3178 17.6176 22.3863L17.6259 22.394C18.0302 22.8076 18.5054 22.8572 18.9134 22.7258C19.3399 22.5885 19.6608 22.265 19.746 21.9774L19.753 21.9538L19.7645 21.9319C19.9464 21.5869 20.1379 20.7832 20.026 19.9463C19.9159 19.1222 19.5181 18.3011 18.5608 17.847C18.436 17.7878 18.3829 17.6387 18.442 17.5139C18.4833 17.427 18.5682 17.3749 18.6581 17.3712C18.6821 17.3635 18.7078 17.3594 18.7344 17.3594C19.709 17.3594 20.4288 17.5802 20.9452 17.9492C21.4632 18.3193 21.7534 18.822 21.8973 19.3415C22.0402 19.8577 22.0401 20.3934 21.9794 20.8483C21.919 21.3008 21.7959 21.6937 21.6752 21.9272C21.5092 22.2486 21.1899 22.5668 20.8139 22.7826C20.437 22.999 19.9694 23.1314 19.5061 23.0281C19.4943 23.0254 19.4829 23.022 19.4719 23.0179ZM19.5664 17.9274C20.1551 18.4767 20.4298 19.1931 20.5216 19.8801C20.6438 20.7944 20.4483 21.6903 20.218 22.1436C20.1722 22.2864 20.0975 22.4243 20.0007 22.5517C20.1905 22.5248 20.3831 22.4534 20.5649 22.349C20.8734 22.172 21.1168 21.9188 21.231 21.6978C21.3188 21.5278 21.4289 21.1935 21.4838 20.7822C21.5383 20.3733 21.5356 19.9087 21.4154 19.475C21.2962 19.0446 21.0629 18.6478 20.6545 18.356C20.3859 18.1641 20.0318 18.0106 19.5664 17.9274Z" fill="#341A1C"/>
</svg>

<svg xmlns="http://www.w3.org/2000/svg" width="32" height="32" fill="none"><path fill="#000" d="M19 2a3.88 3.88 0 0 0 .642 1.56c.288.426.444.926.45 1.44v6.84a3.57 3.57 0 0 0 2.41 3.38l3.11 1.08V4.11l4.331.016V2H19Z"/><path fill="#FF6723" d="M30 16.84V30H12.617A18.07 18.07 0 0 1 30 16.84Z"/><path fill="#4E3233" d="M21.75 10.5a2.75 2.75 0 1 0 0-5.5 2.75 2.75 0 0 0 0 5.5Z"/><path fill="#452829" d="M30 12c-1.657 0-3 1.38-3 3.081v3.838C27 20.62 28.343 22 30 22V12Z"/><path fill="#573739" d="M30 2h-8.555C21 2.5 20.932 3.515 21 4l.49 9a6.53 6.53 0 0 0 2.172 4.035c1.187 1.039 3.33 1.613 4.908 1.615H30v-4.2l-.621-.643.621-.643V11.46l-.621-2.206L30 7.047V2Z"/><path fill="#9B9B9B" d="M15.5 9.815a.785.785 0 1 0-1.56.17 6.894 6.894 0 0 0 1.816 3.96.785.785 0 1 0 1.147-1.071 5.325 5.325 0 0 1-1.403-3.06ZM12.513 9.86a.785.785 0 1 0-1.565.119 9.915 9.915 0 0 0 2.747 6.136.785.785 0 1 0 1.13-1.09 8.345 8.345 0 0 1-2.312-5.164Z"/><path fill="#fff" d="M26 5.65a2.35 2.35 0 0 0-2.27 1.78.461.461 0 0 0 .45.57h3.74a.4.4 0 0 0 .39-.46A2.36 2.36 0 0 0 26 5.65Z"/><path fill="#7D4533" d="M26.35 6.1a1.5 1.5 0 0 0-1.5 1.5 1.749 1.749 0 0 0 0 .4h2.9c.032-.13.05-.265.05-.4a1.5 1.5 0 0 0-1.45-1.5Z"/><path fill="#000" d="M27.21 7.6a.86.86 0 1 0-1.62.4h1.52a.91.91 0 0 0 .1-.4Z"/><path fill="#fff" d="M25.84 7.28a.27.27 0 1 0 0-.54.27.27 0 0 0 0 .54Z"/><path fill="#000" d="M26.73 3.508a3.6 3.6 0 0 0-2.465.59.49.49 0 0 1-.55-.812 4.58 4.58 0 0 1 3.136-.75.49.49 0 1 1-.122.972Z"/><path fill="#3D2123" d="M30 7.006a.629.629 0 0 0-.29.124.67.67 0 0 0-.233.34l-.848 2.852a.951.951 0 0 0 .135.808.886.886 0 0 0 .31.272.847.847 0 0 0 .393.098H30V7.006Z"/><path fill="#290118" d="M30 13.127a4.842 4.842 0 0 1-.25.005 4.839 4.839 0 0 1-2.372-.604.249.249 0 0 0-.164-.023.26.26 0 0 0-.144.086.297.297 0 0 0-.033.333c.292.483.694.881 1.168 1.156a3.073 3.073 0 0 0 1.795.41v-1.363Z"/><path fill="#422426" d="M20.61 14.607a1.5 1.5 0 1 1 2.715 1.279l-2.132 4.523a1.5 1.5 0 1 1-2.713-1.279l2.13-4.523Z"/><path fill="#573739" d="M21.851 19.498c-.131-.799-.62-1.587-1.851-1.998a2.287 2.287 0 0 0-1.151-.069c-.84-.342-1.787-.112-2.546.41-1.467-.17-2.368.854-2.803 2.159L12 25l3.585 1c.026-.062.05-.125.073-.189l2.842 1.19c.333-.667 1.188-2.04 1.94-2.2l.84-.31A3.17 3.17 0 0 0 23 22.86l.79-1.78a1.29 1.29 0 0 0-.74-1.73 1.33 1.33 0 0 0-1.199.147Z"/><path fill="#F95725" d="m18.647 26.342-5.94-2.639a.5.5 0 0 0-.66.254l-.617 1.39a.5.5 0 0 0 .254.659l5.94 2.639a.5.5 0 0 0 .66-.254l.617-1.39a.5.5 0 0 0-.254-.66Z"/><path fill="#FF8101" d="M18.874 30H8.043l1.76-4.056c.169-.385.482-.686.87-.837a1.55 1.55 0 0 1 1.197.028l6.204 2.773c.377.175.672.492.82.885.148.39.14.823-.02 1.207Z"/><path fill="#341A1C" d="M19.472 23.018a1.977 1.977 0 0 1-.405.184 1.707 1.707 0 0 1-1.795-.454 1.178 1.178 0 0 1-.225-.292 1.982 1.982 0 0 1-.555.282 1.707 1.707 0 0 1-1.795-.454 1.176 1.176 0 0 1-.226-1.418l.375-.861a.25.25 0 1 1 .459.2l-.385.882-.006.01a.678.678 0 0 0 .129.826l.008.008c.405.413.88.463 1.288.331.426-.137.747-.46.832-.748l.007-.024.012-.022c.179-.34.307-1.032.197-1.701-.11-.662-.438-1.233-1.105-1.444a.25.25 0 1 1 .15-.476c.914.288 1.321 1.072 1.448 1.838.123.746-.006 1.54-.237 1.995a1.376 1.376 0 0 1-.219.411c.01.015.02.032.026.05a.678.678 0 0 0 .168.245l.008.008c.404.414.88.463 1.287.332.427-.137.748-.461.833-.749l.007-.023.012-.022c.181-.345.373-1.149.261-1.986-.11-.824-.508-1.645-1.465-2.099a.25.25 0 0 1 .097-.476.25.25 0 0 1 .076-.012c.975 0 1.695.221 2.211.59.518.37.808.873.952 1.392.143.517.143 1.052.082 1.507-.06.453-.183.846-.304 1.08-.166.32-.485.639-.861.855-.377.216-.845.348-1.308.245a.27.27 0 0 1-.034-.01Zm.094-5.09c.59.549.864 1.265.956 1.952.122.914-.074 1.81-.304 2.264-.046.142-.12.28-.217.408.19-.027.382-.099.564-.203.308-.177.552-.43.666-.651.088-.17.198-.505.253-.916a3.33 3.33 0 0 0-.069-1.307 1.983 1.983 0 0 0-.76-1.119c-.27-.192-.623-.345-1.089-.429Z"/></svg>
